!!!COM: Frescobaldi, Girolamo
!!!CDT: 1583///-1643
!!!ONM: No. 13
!!!OTL: No. 13: Canzon Seconda &agrave; 2. Canto e Basso
!!!OPR: Canzoni da sonare a una, due, tre et quattro, libro primo
!!!PPP: Venezia
!!!PDT: 1634
!!!URL: http://icking-music-archive.org/ByComposer/Frescobaldi.html
!!!ONB: Andrea Friggi, ed.
**kern	**kern	**kern
!Basso ad Organo	!Basso	!Canto
*staff3	*staff2	*staff1
*Icello	*Icello	*Ivioln
*clefF4	*clefF4	*clefG2
*k[]	*k[]	*k[]
*met(C)	*met(C)	*met(C)
*M4/4	*M4/4	*M4/4
*MM120	*MM120	*MM120
=1-	=1-	=1-
2G\	1r	2dd\
2GG/	.	4.b\
.	.	8dd\
=2	=2	=2
2AA/	1r	4cc\
.	.	8b/L
.	.	8a/J
2GG/	.	8b/L
.	.	8g/
.	.	8b/
.	.	8cc/J
=3	=3	=3
2BB/	1r	8dd\L
.	.	8g\J
.	.	4gg\
2D\	.	4.ff\
.	.	8gg\
=4	=4	=4
2C/	1r	4.ee\
.	.	16ff\LL
.	.	16ee\JJ
4G\	.	8dd\L
.	.	8ee\
4A\	.	8cc\
.	.	8dd\J
=5	=5	=5
2G\	2G\	8b\L
.	.	8cc\J
.	.	4dd\
4.E\	4.E\	2g/
8G\	8G\	.
=6	=6	=6
4F\	4F\	1r
8E\L	8E\L	.
8D\J	8D\J	.
2E\	8E\L	.
.	8C\	.
.	8E\	.
.	8F\J	.
=7	=7	=7
2C/	8G\L	1r
.	8C\J	.
.	4c\	.
2G\	4.B\	.
.	8c\	.
=8	=8	=8
2A\	8A\L	2r
.	8c\	.
.	8B\	.
.	8A\J	.
4G\	2G\	2gg\
4E\	.	.
=9	=9	=9
2C/	8C/L	4.ee\
.	8E/	.
.	8D/	.
.	8C/J	8gg\
2D\	2D\	4ff\
.	.	8ee\L
.	.	8dd\J
=10	=10	=10
2C/	2C/	8ee\L
.	.	8cc\
.	.	8ee\
.	.	8ff\J
4D\	2r	8gg\L
.	.	8g\J
4A\	.	4cc\
=11	=11	=11
2G\	1r	4.b\
.	.	8cc\
2F\	.	4.a/
.	.	16b/LL
.	.	16a/JJ
=12	=12	=12
2E\	2r	8g/L
.	.	8b/
.	.	8a/
.	.	8g/J
2D\	2D\	2f#/
=13	=13	=13
2BB/	4.BB/	2g/
.	8D\	.
4C/	4C/	2r
8BB/L	8BB/L	.
8AA/J	8AA/J	.
=14	=14	=14
4.BB/	8BB/L	2r
.	8GG/	.
.	8BB/	.
8C/	8C/J	.
2D\	2D\	4r
.	.	4dd\
=15	=15	=15
2.G\	4GG/	4.b\
.	2G\	.
.	.	8dd\
.	.	4cc\
4F#\	4F#\	8b/L
.	.	8a/J
=16	=16	=16
2G\	2G\	8b/L
.	.	8g/
.	.	8b/
.	.	8cc/J
2BB/	2r	8dd\L
.	.	8g\J
.	.	4gg\
=17	=17	=17
*	*clefC4	*
2C/	4r	4.ee\
.	4c\	.
.	.	8gg\
2AA/	4.A\	4ff\
.	.	4ee\
.	8c\	.
=18	=18	=18
2BB-/	4B-\	8dd\L
.	.	8cc\
.	8A/L	8dd\
.	8G/J	8ee\J
2F\	8A/L	4.ff\
.	8F/	.
.	8A/	.
.	8Bn/J	16ee\LL
.	.	16dd\JJ
=19	=19	=19
2C/	8c\L	8ee\L
.	8d\	8ff\J
.	8c\	2gg\
.	8B\J	.
2D\	4A\	.
.	4D/	4ff#\
=20	=20	=20
*	*clefF4	*
4.G\	8G\L	[2gg\
.	8A\	.
.	8G\	.
8F\	8F\J	.
4E\	8E/L	8gg\L]
.	8D/	8ff\
4C/	8C/	8ee\
.	8BB/J	8dd\J
=21	=21	=21
4AA/	4AA/	4cc\
4BB/	4BB/	4b\
4C/	4C/	2a/
4D\	4D\	.
=22	=22	=22
1GG	1GG	1b
=23	=23	=23
*M3/2	*M3/2	*M3/2
2.G\	2.G\	1.r
4E\	4E\	.
4F\	4F\	.
4G\	4G\	.
=24	=24	=24
2C/	2C/	2.gg\
2c\	2c\	.
.	.	4ee\
2B-\	2B-\	4ff\
.	.	4gg\
=25	=25	=25
2A\	4.A\	4cc\
.	.	2ff\
.	8G\	.
4F\	4F\	.
4G\	4G\	4dd\
2E\	2E\	2ee\
=26	=26	=26
1D	4.D\	2.ff\
.	8E\	.
.	4F\	.
.	4G\	8ee\L
.	.	8dd\J
2AA/	2A\	2cc#\
=27	=27	=27
2D\	1D	2.dd\
2GG/	.	.
.	.	4b\
4AA/	2r	4cc\
4BB/	.	4dd\
=28	=28	=28
2.C/	1.r	4g/
.	.	2cc\
4D\	.	4a/
2GG/	.	2b\
=29	=29	=29
2.AA/	2.A\	4.cc#\
.	.	8dd\
.	.	4ee\
4FF/	4F\	4a/
4GG/	4G\	2ee\
4AA/	4A\	.
=30	=30	=30
2D\	4D\	2ff\
.	2B-\	.
4BB-/	.	4dd\
4GG/	4G\	2gg\
2C/	2c\	.
.	.	4ee\
=31	=31	=31
4AA/	4A\	2ff\
2BB-/	2B-\	.
.	.	4dd\
4GG/	4G\	2ee\
2AA/	2A\	.
.	.	4cc#\
=32	=32	=32
*met(C)	*met(C)	*met(C)
*M4/4	*M4/4	*M4/4
2F#\	2F#\	2dd\
2G\	2G\	[2b-\
=33	=33	=33
[1C	[1C	2b-\]
.	.	4a/
.	.	4g/
=34	=34	=34
2C/]	2C/]	2f#/
2BB/	2BB/	2g#/
=35	=35	=35
2AA/	4AA/	2a/
.	2A\	.
2E\	.	[2b\
.	4G#\	.
=36	=36	=36
2A\	2A\	4b\]
.	.	2a/
2C#/	2C#/	.
.	.	[4g/
=37	=37	=37
1D	1D	4g/]
.	.	8f#/L
.	.	8e/J
.	.	2f#/
=38	=38	=38
1GG	1GG	2g/
.	.	2r
=39	=39	=39
*clefC4	*	*
2c\	1r	4.cc\
.	.	8g/
4A\	.	8cc\L
.	.	8dd\J
4c\	.	8ee\L
.	.	16ff\L
.	.	16ee\JJ
=40	=40	=40
4G/	4G\	8dd\L
.	.	8dd\
8G/L	8G\L	8ee\
8G/J	8G\J	8ff\J
4.G/	4.G\	8gg\L
.	.	8g\J
.	.	4dd\
8D/	8D\	.
=41	=41	=41
8G\L	8G\L	2b\
8A\	8A\	.
8B\	8B\	.
8c\J	8c\J	.
4A\	4A\	2r
4D/	4D\	.
=42	=42	=42
4G/	8G\L	4gg\
.	8G\	.
8A\L	8A\	8gg\L
8B\J	8B\J	8gg\J
4c\	4c\	4.gg\
4G/	4G\	.
.	.	8dd\
=43	=43	=43
*clefF4	*	*
2C/	2r	8ee\L
.	.	8ff\
.	.	8gg\
.	.	8aa\J
2D\	4.D\	2ff\
.	8AA/	.
=44	=44	=44
2D\	8D\L	1r
.	8E\J	.
.	8F\L	.
.	16G\L	.
.	16F\JJ	.
4.E\	8E\L	.
.	8C\	.
.	8E\	.
8F\	8F\J	.
=45	=45	=45
2G\	8G\L	4dd\
.	8D\	.
.	8G\	8dd\L
.	8A\J	8dd\J
4.G\	4B\	4.dd\
.	8G\L	.
8A\	8c\J	8a/
=46	=46	=46
4B-\	4B-\	8dd\L
.	.	8ee\
8A\L	8A\L	8ff\
8G\J	8G\J	8gg\J
2A\	2A\	8ee\L
.	.	8aa\
.	.	8gg\
.	.	8aa\J
=47	=47	=47
*clefC4	*clefC4	*
4d\	4d\	2ff#\
8d\L	8d\L	.
8d\J	8d\J	.
4.d\	4.d\	2r
8A\	8A\	.
=48	=48	=48
4d\	8d\L	1r
.	8e\	.
4f\	8f\	.
.	8g\J	.
4e\	4e\	.
4A\	4A\	.
=49	=49	=49
4B\	8B/L	4.gg\
.	8A/	.
4G/	8G/	.
.	8F/J	8dd\
*	*clefF4	*
4E/	4E\	8ee\L
.	.	8ff\J
4C#/	4C#/	8gg\L
.	.	16aa\L
.	.	16gg\JJ
=50	=50	=50
*clefF4	*	*
2D\	2D\	8ff\L
.	.	8ee\
.	.	8ff\
.	.	8gg\J
2A\	2r	8ee\L
.	.	8aa\
.	.	8gg\
.	.	8ff#\J
=51	=51	=51
2G\	4.G\	2gg\
.	8D\	.
2GG/	8G\L	2r
.	8A\J	.
.	8B\L	.
.	16c\L	.
.	16B\JJ	.
=52	=52	=52
1AA	8A\L	4ee\
.	8E\	.
.	8F\	8ee\L
.	8G\J	8ee\J
.	8A\L	4.ee\
.	8AA\	.
.	8C\	.
.	8D\J	8a/
=53	=53	=53
2E\	8E\L	8cc\L
.	8F\	16dd\L
.	.	16cc\JJ
.	8G\	8b\L
.	8A\J	8cc\J
2D\	8B\L	8dd\L
.	8G\	8b\
.	8A\	8cc\
.	8F#\J	8a\J
=54	=54	=54
2G\	2G\	8b\L
.	.	8cc\
.	.	8dd\
.	.	8ee\J
4D\	2r	8ff\L
.	.	8gg\
4C#/	.	8aa\
.	.	8ee\J
=55	=55	=55
2D\	4D\	2ff\
.	8D\L	.
.	8D\J	.
4.D\	4.D\	2r
8AA/	8AA/	.
=56	=56	=56
4D\	8D\L	4aa\
.	8E\	.
8F\L	8F\	8aa\L
8G\J	8G\J	8aa\J
4A\	8A\L	4.aa\
.	8AA\	.
4D\	8D\	.
.	8C\J	8a/
=57	=57	=57
4.BB-/	4.BB-/	8dd\L
.	.	8ee\
.	.	8ff\
8GG/	8GG/	8gg\J
4AA/	4AA/	8ee\L
.	.	8cc\J
4EE/	4EE/	[4gg\
=58	=58	=58
4GG/	4GG/	4gg\]
4AA/	4AA/	16ff\LL
.	.	16ee\
.	.	16dd\
.	.	16cc\JJ
2BB-/	2BB-/	8dd\L
.	.	16ee\L
.	.	16ff\JJ
.	.	8ee\L
.	.	8dd\J
=59	=59	=59
2AA/	2AA/	2ee\
2D\	2D\	2ff#\
=60	=60	=60
*	*clefC4	*
2.D\	4r	1r
.	2d\	.
4C/	8c\L	.
.	8d\J	.
=61	=61	=61
*	*clefF4	*
2BB-/	2B-\	4r
.	.	2dd\
2FF#/	2F#\	.
.	.	8cc\L
.	.	8dd\J
=62	=62	=62
2GG/	2G\	2b-\
2D\	2D\	2f#/
=63	=63	=63
2E-\	4E-\	2g/
.	8D/L	.
.	8C/J	.
2BBn/	2BBn/	4r
.	.	[4gg\
=64	=64	=64
1C	1C	4gg\]
.	.	8ff\L
.	.	8gg\J
.	.	[2ee-\
=65	=65	=65
1FF	1FF	4ee-\]
.	.	4dd\
.	.	[2cc\
=66	=66	=66
1GG	1GG	2cc\]
.	.	2b\
=67	=67	=67
*M2/2	*M2/2	*M2/2
2c\	2.r	4.cc\
.	.	8cc\
4G\	.	4dd\
=68	=68	=68
2C/	4.C/	4ee\
.	.	4gg\
.	8C/	.
4D\	4D\	4ff#\
=69	=69	=69
2E\	2E\	8gg\L
.	.	8ff\
.	.	8ee\
.	.	8dd\
4E\	4E\	8cc\
.	.	8b\J
=70	=70	=70
4F\	4F\	2a/
4A\	4A\	.
4G#\	4G#\	4b\
=71	=71	=71
2A\	4.A\	2.r
.	8A\	.
4B\	4B\	.
=72	=72	=72
4c\	4c\	4.ee\
2A\	2A\	.
.	.	8ee\
.	.	4ff#\
=73	=73	=73
2.G\	2.G\	4gg\
.	.	4dd\
.	.	4gg\
=74	=74	=74
2D\	8D\L	2.ff\
.	8E\	.
.	8F\	.
.	8G\	.
4D\	8A\	.
.	8B\J	.
=75	=75	=75
2C/	4c\	8ee\L
.	.	8dd\
.	4c\	8cc\
.	.	8b\
4c\	4c\	8a\
.	.	8g\J
=76	=76	=76
4B-\	4B-\	4.dd\
2G\	2G\	.
.	.	8dd\
.	.	4ee\
=77	=77	=77
2.F\	2.F\	4ff\
.	.	4cc\
.	.	4ff\
=78	=78	=78
2AA/	8AA/L	2.ee\
.	8BB/	.
.	8C/	.
.	8D/	.
4E\	8E/	.
.	8F/J	.
=79	=79	=79
2G\	4G\	2.r
.	4G\	.
4G\	4G\	.
=80	=80	=80
4F\	4F\	8aa\L
.	.	8gg\
2A\	2A\	8ff\
.	.	8ee\
.	.	8dd\
.	.	8cc\J
=81	=81	=81
2D\	4.D\	2ff\
.	8D\	.
4E\	4E\	4ee\
=82	=82	=82
2F\	2.F\	4dd\
.	.	2cc\
4F\	.	.
=83	=83	=83
4G\	4G\	2b-\
4GG/	4GG/	.
4AA/	4AA/	4a/
=84	=84	=84
4BB-/	4BB-/	2.g/
2C/	2C/	.
=85	=85	=85
*met(C)	*met(C)	*met(C)
*M4/4	*M4/4	*M4/4
2FF/	2FF/	2a/
4F\	2r	8r
.	.	16a/LL
.	.	16b/JJ
4A\	.	8cc\L
.	.	16ee\L
.	.	16ff\JJ
=86	=86	=86
4G\	2r	8gg\L
.	.	8dd\
4D\	.	8ff\
.	.	8ff\J
4AA/	8r	2ee\
.	16AA/LL	.
.	16BB/JJ	.
4C/	8C\L	.
.	16E\L	.
.	16F\JJ	.
=87	=87	=87
8GG/L	8G\L	8r
8D/J	8D\	16ff\LL
.	.	16gg\JJ
4F\	8F\	8aa\L
.	8F\J	16a\L
.	.	16b\JJ
4E\	4E\	8cc/L
.	.	8g/
4D\	4D\	8b-/
.	.	8b-/J
=88	=88	=88
4C/	4C/	4a/
4BB-/	4BB-/	2g/
4AA/	4AA/	.
4D\	4D\	4f#/
=89	=89	=89
2GG/	2GG/	8r
.	.	16g/LL
.	.	16a/JJ
.	.	8b-\L
.	.	16dd\L
.	.	16ee\JJ
4.D\	8r	8ff\L
.	16D\LL	8dd\
.	16E\JJ	.
.	8F\L	8aa\
8A\	16A\L	8aa\J
.	16B\JJ	.
=90	=90	=90
8c\L	8c\L	4gg\
8G\J	8G\	.
4B-\	8B-\	2ff\
.	8B-\J	.
4A\	4A\	.
4G\	4G\	[4ee\
=91	=91	=91
4.F\	4.F\	8ee\L]
.	.	8dd\J
.	.	2dd\
8G\	8G\	.
4E\	4E\	.
4A\	4A\	4cc#\
=92	=92	=92
2D\	2D\	8r
.	.	16dd\LL
.	.	16ee\JJ
.	.	8ff\L
.	.	16a\L
.	.	16b\JJ
4A\	8r	8cc\L
.	16A\LL	8a\
.	16B\JJ	.
4E\	8c\L	8ee\
.	16E\L	8ee\J
.	16F\JJ	.
=93	=93	=93
8G\L	8G\L	4dd\
8D\J	8D\	.
4F\	8F\	2cc\
.	8F\J	.
4E\	4E\	.
4D\	4D\	[4b-\
=94	=94	=94
4.C/	4.C/	8b-/L]
.	.	8a/J
.	.	2a/
8D\	8D\	.
2BB-/	2BB-/	.
.	.	4g/
=95	=95	=95
2.AA/	1AA	2a/
.	.	2r
4A\	.	.
=96	=96	=96
2G#\	1r	2r
2A\	.	4r
.	.	4cc#\
=97	=97	=97
2F#\	4r	2dd\
.	4F#\	.
2G\	2G\	4r
.	.	4dd\
=98	=98	=98
2G#\	4r	[4ee\
.	4G#\	16ee\LL]
.	.	16dd\
.	.	16cc\
.	.	16b\JJ
2A\	2A\	8cc\L
.	.	8a\
.	.	8ee\
.	.	8aa\J
=99	=99	=99
4D\	8r	4.ff\
.	8D\	.
4.A\	4.A\	.
.	.	8cc\
.	.	4.ee\
8c\	8c\	.
[4G\	[4G\	.
.	.	8b\
=100	=100	=100
8G\L]	8G\L]	2dd\
8B-\J	8B-\	.
4D\	8D\	.
.	8E\J	.
4F\	4.F\	8r
.	.	8a/
4AA/	.	[4cc\
.	8AA/	.
=101	=101	=101
4.C/	4.C/	8cc\L]
.	.	16b\L
.	.	16a\JJ
.	.	4.g/
8BB/	8BB/	.
4GG/	4.GG/	.
.	.	8a/
4G\	.	4b-\
.	8G\	.
=102	=102	=102
4.B-\	4.B-\	8r
.	.	8dd\
.	.	4.ff\
8A\	8A\	.
4c\	4.c\	.
.	.	8ee\
4E\	.	[4gg\
.	8E\	.
=103	=103	=103
2G\	4.G\	8gg\L]
.	.	16ff\L
.	.	16ee\JJ
.	.	4.dd\
.	16F\LL	.
.	16E\JJ	.
4.D\	4.D\	.
.	.	8ee\L
.	.	8ff#\
8E\	8E\	8gg\J
=104	=104	=104
4F#\	4F#\	8aa\L
.	.	8a\J
4D\	8r	4.dd\
.	8D\	.
4.G\	4.G\	.
.	.	8cc\
.	.	[4b\
8Fn\	8Fn\	.
=105	=105	=105
2E\	4.E\	8b/L]
.	.	16a/L
.	.	16b/JJ
.	.	4.cc\
.	16D\LL	.
.	16E\JJ	.
4.C/	4.C/	.
.	.	8b\
.	.	[4a/
8D\	8D\	.
=106	=106	=106
2E-\	2E-\	8a/L]
.	.	8g/J
.	.	2g/
2D\	2D\	.
.	.	4f#/
=107	=107	=107
0GG	0GG	0g
==	==	==
*-	*-	*-
!!!ENC: Craig Stuart Sapp
!!!END: 2004/12/14/
